assets/images/svg/booking-fill.svg

<svg width="24" height="24" viewBox="0 0 24 24" fill="none" xmlns="http://www.w3.org/2000/svg">
<path d="M16.75 3.56V2C16.75 1.59 16.41 1.25 16 1.25C15.59 1.25 15.25 1.59 15.25 2V3.5H8.74999V2C8.74999 1.59 8.40999 1.25 7.99999 1.25C7.58999 1.25 7.24999 1.59 7.24999 2V3.56C4.54999 3.81 3.23999 5.42 3.03999 7.81C3.01999 8.1 3.25999 8.34 3.53999 8.34H20.46C20.75 8.34 20.99 8.09 20.96 7.81C20.76 5.42 19.45 3.81 16.75 3.56Z" fill="#F58218"/>
<path d="M19 15C16.79 15 15 16.79 15 19C15 19.75 15.21 20.46 15.58 21.06C16.27 22.22 17.54 23 19 23C20.46 23 21.73 22.22 22.42 21.06C22.79 20.46 23 19.75 23 19C23 16.79 21.21 15 19 15ZM21.07 18.57L18.94 20.54C18.8 20.67 18.61 20.74 18.43 20.74C18.24 20.74 18.05 20.67 17.9 20.52L16.91 19.53C16.62 19.24 16.62 18.76 16.91 18.47C17.2 18.18 17.68 18.18 17.97 18.47L18.45 18.95L20.05 17.47C20.35 17.19 20.83 17.21 21.11 17.51C21.39 17.81 21.37 18.28 21.07 18.57Z" fill="#F58218"/>
<path d="M20 9.83984H4C3.45 9.83984 3 10.2898 3 10.8398V16.9998C3 19.9998 4.5 21.9998 8 21.9998H12.93C13.62 21.9998 14.1 21.3298 13.88 20.6798C13.68 20.0998 13.51 19.4598 13.51 18.9998C13.51 15.9698 15.98 13.4998 19.01 13.4998C19.3 13.4998 19.59 13.5198 19.87 13.5698C20.47 13.6598 21.01 13.1898 21.01 12.5898V10.8498C21 10.2898 20.55 9.83984 20 9.83984ZM9.21 18.2098C9.02 18.3898 8.76 18.4998 8.5 18.4998C8.24 18.4998 7.98 18.3898 7.79 18.2098C7.61 18.0198 7.5 17.7598 7.5 17.4998C7.5 17.2398 7.61 16.9798 7.79 16.7898C7.89 16.6998 7.99 16.6298 8.12 16.5798C8.49 16.4198 8.93 16.5098 9.21 16.7898C9.39 16.9798 9.5 17.2398 9.5 17.4998C9.5 17.7598 9.39 18.0198 9.21 18.2098ZM9.21 14.7098C9.16 14.7498 9.11 14.7898 9.06 14.8298C9 14.8698 8.94 14.8998 8.88 14.9198C8.82 14.9498 8.76 14.9698 8.7 14.9798C8.63 14.9898 8.56 14.9998 8.5 14.9998C8.24 14.9998 7.98 14.8898 7.79 14.7098C7.61 14.5198 7.5 14.2598 7.5 13.9998C7.5 13.7398 7.61 13.4798 7.79 13.2898C8.02 13.0598 8.37 12.9498 8.7 13.0198C8.76 13.0298 8.82 13.0498 8.88 13.0798C8.94 13.0998 9 13.1298 9.06 13.1698C9.11 13.2098 9.16 13.2498 9.21 13.2898C9.39 13.4798 9.5 13.7398 9.5 13.9998C9.5 14.2598 9.39 14.5198 9.21 14.7098ZM12.71 14.7098C12.52 14.8898 12.26 14.9998 12 14.9998C11.74 14.9998 11.48 14.8898 11.29 14.7098C11.11 14.5198 11 14.2598 11 13.9998C11 13.7398 11.11 13.4798 11.29 13.2898C11.67 12.9198 12.34 12.9198 12.71 13.2898C12.89 13.4798 13 13.7398 13 13.9998C13 14.2598 12.89 14.5198 12.71 14.7098Z" fill="#F58218"/>
</svg>

<svg xmlns="http://www.w3.org/2000/svg" width="24" height="24" fill="none" viewBox="0 0 24 24"><path fill="#f58218" d="M16.75 3.56V2c0-.41-.34-.75-.75-.75s-.75.34-.75.75v1.5h-6.5V2c0-.41-.34-.75-.75-.75s-.75.34-.75.75v1.56c-2.7.25-4.01 1.86-4.21 4.25-.02.29.22.53.5.53h16.92c.29 0 .53-.25.5-.53-.2-2.39-1.51-4-4.21-4.25M19 15c-2.21 0-4 1.79-4 4 0 .75.21 1.46.58 2.06A3.97 3.97 0 0 0 19 23c1.46 0 2.73-.78 3.42-1.94.37-.6.58-1.31.58-2.06 0-2.21-1.79-4-4-4m2.07 3.57-2.13 1.97c-.14.13-.33.2-.51.2-.19 0-.38-.07-.53-.22l-.99-.99a.754.754 0 0 1 0-1.06c.29-.29.77-.29 1.06 0l.48.48 1.6-1.48c.3-.28.78-.26 1.06.04s.26.77-.04 1.06"/><path fill="#f58218" d="M20 9.84H4c-.55 0-1 .45-1 1V17c0 3 1.5 5 5 5h4.93c.69 0 1.17-.67.95-1.32-.2-.58-.37-1.22-.37-1.68 0-3.03 2.47-5.5 5.5-5.5.29 0 .58.02.86.07.6.09 1.14-.38 1.14-.98v-1.74A1.02 1.02 0 0 0 20 9.84M9.21 18.21c-.19.18-.45.29-.71.29s-.52-.11-.71-.29c-.18-.19-.29-.45-.29-.71s.11-.52.29-.71c.1-.09.2-.16.33-.21.37-.16.81-.07 1.09.21.18.19.29.45.29.71s-.11.52-.29.71m0-3.5-.15.12q-.09.06-.18.09-.09.045-.18.06c-.07.01-.14.02-.2.02-.26 0-.52-.11-.71-.29-.18-.19-.29-.45-.29-.71s.11-.52.29-.71c.23-.23.58-.34.91-.27q.09.015.18.06.09.03.18.09l.15.12c.18.19.29.45.29.71s-.11.52-.29.71m3.5 0c-.19.18-.45.29-.71.29s-.52-.11-.71-.29c-.18-.19-.29-.45-.29-.71s.11-.52.29-.71c.38-.37 1.05-.37 1.42 0 .18.19.29.45.29.71s-.11.52-.29.71"/></svg>
